X: 1
T: The Rakes Of Clonmel
R: jig
M: 6/8
L: 1/8
K: Amin
cBA BGE|EAA A2B|cBc ABc|BGG G2^f|
g^fg ege|dBG Bcd|ecA dBG|EAA A2:|
a|a^ga A2a|ecA A2^f|g^fg G2g|dBG GAB|
cBc C2c|dcd D2d|edc Bcd|ecA A2a|
aea aed|cBc A2^f|gdg gdc|BAB GAB|
cBc C2c|dcd D2d|edc Bcd|ecA A3||


Tune 1130	Setting 14395

